X: 131353
T: Moheravogue
T: Mothar Riabh\'ogach
T: Tree-Cluster of the Tit-Larks
S: "Ceol Rince na hEireann" 1/123
N: I couldn't resist listing this tune by the third name 
N: (= translation by P.W.Joyce, who should know)
Z: B.Black
L: 1/8
M: 4/4
R: reel
K: Ador
EAAB cBce|dB B2 gB B2|EAAB cBce|dBGA BA A2|
EAAB cBce|dB B2 gB B2|A3B cBce|dBGA BA A2||
eaag abag|efga gedg|eaag abaf|geGA BA A2|
eaag abag|efga gfga|gAAB cbce|dBGA BA A2||
